assets/icons/copy.svg

<?xml version="1.0" encoding="utf-8"?><!-- Uploaded to: SVG Repo, www.svgrepo.com, Generator: SVG Repo Mixer Tools -->
<svg width="800px" height="800px" viewBox="0 0 24 24" fill="none" xmlns="http://www.w3.org/2000/svg">
<path fill-rule="evenodd" clip-rule="evenodd" d="M15 1.25H10.9436C9.10583 1.24998 7.65019 1.24997 6.51098 1.40314C5.33856 1.56076 4.38961 1.89288 3.64124 2.64124C2.89288 3.38961 2.56076 4.33856 2.40314 5.51098C2.24997 6.65019 2.24998 8.10582 2.25 9.94357V16C2.25 17.8722 3.62205 19.424 5.41551 19.7047C5.55348 20.4687 5.81753 21.1208 6.34835 21.6517C6.95027 22.2536 7.70814 22.5125 8.60825 22.6335C9.47522 22.75 10.5775 22.75 11.9451 22.75H15.0549C16.4225 22.75 17.5248 22.75 18.3918 22.6335C19.2919 22.5125 20.0497 22.2536 20.6517 21.6517C21.2536 21.0497 21.5125 20.2919 21.6335 19.3918C21.75 18.5248 21.75 17.4225 21.75 16.0549V10.9451C21.75 9.57754 21.75 8.47522 21.6335 7.60825C21.5125 6.70814 21.2536 5.95027 20.6517 5.34835C20.1208 4.81753 19.4687 4.55348 18.7047 4.41551C18.424 2.62205 16.8722 1.25 15 1.25ZM17.1293 4.27117C16.8265 3.38623 15.9876 2.75 15 2.75H11C9.09318 2.75 7.73851 2.75159 6.71085 2.88976C5.70476 3.02502 5.12511 3.27869 4.7019 3.7019C4.27869 4.12511 4.02502 4.70476 3.88976 5.71085C3.75159 6.73851 3.75 8.09318 3.75 10V16C3.75 16.9876 4.38624 17.8265 5.27117 18.1293C5.24998 17.5194 5.24999 16.8297 5.25 16.0549V10.9451C5.24998 9.57754 5.24996 8.47522 5.36652 7.60825C5.48754 6.70814 5.74643 5.95027 6.34835 5.34835C6.95027 4.74643 7.70814 4.48754 8.60825 4.36652C9.47522 4.24996 10.5775 4.24998 11.9451 4.25H15.0549C15.8297 4.24999 16.5194 4.24998 17.1293 4.27117ZM7.40901 6.40901C7.68577 6.13225 8.07435 5.9518 8.80812 5.85315C9.56347 5.75159 10.5646 5.75 12 5.75H15C16.4354 5.75 17.4365 5.75159 18.1919 5.85315C18.9257 5.9518 19.3142 6.13225 19.591 6.40901C19.8678 6.68577 20.0482 7.07435 20.1469 7.80812C20.2484 8.56347 20.25 9.56458 20.25 11V16C20.25 17.4354 20.2484 18.4365 20.1469 19.1919C20.0482 19.9257 19.8678 20.3142 19.591 20.591C19.3142 20.8678 18.9257 21.0482 18.1919 21.1469C17.4365 21.2484 16.4354 21.25 15 21.25H12C10.5646 21.25 9.56347 21.2484 8.80812 21.1469C8.07435 21.0482 7.68577 20.8678 7.40901 20.591C7.13225 20.3142 6.9518 19.9257 6.85315 19.1919C6.75159 18.4365 6.75 17.4354 6.75 16V11C6.75 9.56458 6.75159 8.56347 6.85315 7.80812C6.9518 7.07435 7.13225 6.68577 7.40901 6.40901Z" fill="#1C274C"/>
</svg>

<svg xmlns="http://www.w3.org/2000/svg" width="800" height="800" fill="none" viewBox="0 0 24 24"><path fill="#1C274C" fill-rule="evenodd" d="M15 1.25h-4.056c-1.838 0-3.294 0-4.433.153-1.172.158-2.121.49-2.87 1.238-.748.749-1.08 1.698-1.238 2.87-.153 1.14-.153 2.595-.153 4.433V16a3.75 3.75 0 0 0 3.166 3.705c.137.764.402 1.416.932 1.947.602.602 1.36.86 2.26.982.867.116 1.97.116 3.337.116h3.11c1.367 0 2.47 0 3.337-.116.9-.122 1.658-.38 2.26-.982s.86-1.36.982-2.26c.116-.867.116-1.97.116-3.337v-5.11c0-1.367 0-2.47-.116-3.337-.122-.9-.38-1.658-.982-2.26-.531-.53-1.183-.795-1.947-.932A3.75 3.75 0 0 0 15 1.25m2.13 3.021A2.25 2.25 0 0 0 15 2.75h-4c-1.907 0-3.261.002-4.29.14-1.005.135-1.585.389-2.008.812S4.025 4.705 3.89 5.71C3.752 6.739 3.75 8.093 3.75 10v6a2.25 2.25 0 0 0 1.521 2.13c-.021-.61-.021-1.3-.021-2.075v-5.11c0-1.367 0-2.47.117-3.337.12-.9.38-1.658.981-2.26.602-.602 1.36-.86 2.26-.981.867-.117 1.97-.117 3.337-.117h3.11c.775 0 1.464 0 2.074.021M7.408 6.41c.277-.277.665-.457 1.4-.556.754-.101 1.756-.103 3.191-.103h3c1.435 0 2.436.002 3.192.103.734.099 1.122.28 1.399.556.277.277.457.665.556 1.4.101.754.103 1.756.103 3.191v5c0 1.435-.002 2.436-.103 3.192-.099.734-.28 1.122-.556 1.399-.277.277-.665.457-1.4.556-.755.101-1.756.103-3.191.103h-3c-1.435 0-2.437-.002-3.192-.103-.734-.099-1.122-.28-1.399-.556-.277-.277-.457-.665-.556-1.4-.101-.755-.103-1.756-.103-3.191v-5c0-1.435.002-2.437.103-3.192.099-.734.28-1.122.556-1.399" clip-rule="evenodd"/></svg>
